www/assets/images/test_icons/flags/TV.svg

<svg fill="none" height="15" viewBox="0 0 21 15" width="21" xmlns="http://www.w3.org/2000/svg" xmlns:xlink="http://www.w3.org/1999/xlink"><mask id="a" height="15" maskUnits="userSpaceOnUse" width="21" x="0" y="0"><path d="m19 0h-17c-1.10457 0-2 .89543-2 2v11c0 1.1046.89543 2 2 2h17c1.1046 0 2-.8954 2-2v-11c0-1.10457-.8954-2-2-2z" fill="#fff"/></mask><g mask="url(#a)"><path d="m19 0h-17c-1.10457 0-2 .89543-2 2v11c0 1.1046.89543 2 2 2h17c1.1046 0 2-.8954 2-2v-11c0-1.10457-.8954-2-2-2z" fill="#66a1ba"/><path clip-rule="evenodd" d="m14 5v1h1v-1zm3 0v1h1v-1zm-5 3v1h1v-1zm4 1v1h1v-1zm-4 2v1h1v-1zm-4-1v1h1v-1z" fill="#ffd400" fill-rule="evenodd"/><path d="m9 1h-7c-.55228 0-1 .44772-1 1v5c0 .55228.44772 1 1 1h7c.55229 0 1-.44772 1-1v-5c0-.55228-.44771-1-1-1z" fill="#fff"/><path clip-rule="evenodd" d="m5 5h-3v-1h3v-2h1v2h3v1h-3v2h-1zm2.5 1v1h1.5v-1zm0-4v1h1.5v-1zm-5.5 4v1h1.5v-1zm0-4v1h1.5v-1z" fill="#f00" fill-rule="evenodd"/><path d="m19 .5h-17c-.82843 0-1.5.67157-1.5 1.5v11c0 .8284.67157 1.5 1.5 1.5h17c.8284 0 1.5-.6716 1.5-1.5v-11c0-.82843-.6716-1.5-1.5-1.5z" stroke="#000" stroke-opacity=".1"/></g></svg>

<svg width="21" height="15" viewBox="0 0 21 15" fill="none" xmlns="http://www.w3.org/2000/svg">
<mask id="mask0_3_22" style="mask-type:alpha" maskUnits="userSpaceOnUse" x="0" y="0" width="21" height="15">
<path d="M19 0H2C0.89543 0 0 0.89543 0 2V13C0 14.1046 0.89543 15 2 15H19C20.1046 15 21 14.1046 21 13V2C21 0.89543 20.1046 0 19 0Z" fill="white"/>
</mask>
<g mask="url(#mask0_3_22)">
<path d="M19 0H2C0.89543 0 0 0.89543 0 2V13C0 14.1046 0.89543 15 2 15H19C20.1046 15 21 14.1046 21 13V2C21 0.89543 20.1046 0 19 0Z" fill="#66A1BA"/>
<path fill-rule="evenodd" clip-rule="evenodd" d="M14 5V6H15V5H14ZM17 5V6H18V5H17ZM12 8V9H13V8H12ZM16 9V10H17V9H16ZM12 11V12H13V11H12ZM8 10V11H9V10H8Z" fill="#FFD400"/>
<path d="M9 1H2C1.44772 1 1 1.44772 1 2V7C1 7.55228 1.44772 8 2 8H9C9.55229 8 10 7.55228 10 7V2C10 1.44772 9.55229 1 9 1Z" fill="white"/>
<path fill-rule="evenodd" clip-rule="evenodd" d="M5 5H2V4H5V2H6V4H9V5H6V7H5V5ZM7.5 6V7H9V6H7.5ZM7.5 2V3H9V2H7.5ZM2 6V7H3.5V6H2ZM2 2V3H3.5V2H2Z" fill="#FF0000"/>
<path d="M19 0.5H2C1.17157 0.5 0.5 1.17157 0.5 2V13C0.5 13.8284 1.17157 14.5 2 14.5H19C19.8284 14.5 20.5 13.8284 20.5 13V2C20.5 1.17157 19.8284 0.5 19 0.5Z" stroke="black" stroke-opacity="0.1"/>
</g>
</svg>
